; generated by AnycubicSlicer 1.1.1 on 2024-12-24 at 16:10:12 UTC

; 

; external perimeters extrusion width = 0.45mm
; perimeters extrusion width = 0.40mm
; infill extrusion width = 0.45mm
; solid infill extrusion width = 0.50mm
; top infill extrusion width = 0.45mm
; first layer extrusion width = 0.56mm

M73 P0 R144
M201 X2500 Y2500 Z800 E2500 ; sets maximum accelerations, mm/sec^2
M203 X300 Y250 Z8 E80 ; sets maximum feedrates, mm / sec
M204 P2500 R2500 T2500 ; sets acceleration (P, T) and retract acceleration (R), mm/sec^2
M205 X15.00 Y10.00 Z2.00 E10.00 ; sets the jerk limits, mm/sec
M205 S0 T0 ; sets the minimum extruding and travel feed rate, mm/sec
M107
;TYPE:Custom
G90 ; use absolute coordinates
M83 ; extruder relative mode
M104 S195 ; set extruder temp
M140 S40 ; set bed temp
M190 S40 ; wait for bed temp
M109 S195 ; wait for extruder temp
G28                                        ; move X/Y/Z to min endstops
G1 Z0.28                                   ; lift nozzle a bit 
G92 E0 
G1 Y3 F1800                                    ; zero the extruded length 
G1 X60  E25 F500                       ; Extrude 25mm of filament in a 5cm line. 
G92 E0                                     ; zero the extruded length again 
G1 E-2 F500                                ; Retract a little 
G1 X70 F4000                              ; Quickly wipe away from the filament line
M117
G21 ; set units to millimeters
G90 ; use absolute coordinates
M82 ; use absolute distances for extrusion
G92 E0
; Filament gcode
M107
;LAYER_CHANGE
;Z:0.28
;HEIGHT:0.28
; BEFORE_LAYER_CHANGE 0 @ 0.28mm
G1 E-2 F4800
G92 E0
G1 Z.28 F7200
; AFTER_LAYER_CHANGE 0 @ 0.28mm
G1 X28.819 Y50.042
G1 E2 F4800
M204 S2000
;TYPE:Skirt/Brim
;WIDTH:0.56
G1 F3000
G1 X29.223 Y49.875 E2.02544
G1 X29.848 Y49.75 E2.06253
G1 X200.208 Y49.755 E11.97662
G1 X200.753 Y49.869 E12.00902
G1 X201.302 Y50.106 E12.04382
G1 X201.692 Y50.379 E12.07152
G1 X202.102 Y50.785 E12.1051
G1 X202.408 Y51.226 E12.13634
G1 X202.625 Y51.722 E12.16785
G1 X202.75 Y52.348 E12.205
G1 X202.75 Y177.653 E19.49712
G1 X202.634 Y178.245 E19.53223
G1 X202.367 Y178.85 E19.57071
G1 X202.084 Y179.235 E19.59852
G1 X201.535 Y179.747 E19.64221
G1 X201.181 Y179.958 E19.66619
G1 X200.777 Y180.125 E19.69163
G1 X200.152 Y180.25 E19.72872
G1 X29.847 Y180.25 E29.63961
G1 X29.255 Y180.134 E29.67472
G1 X28.65 Y179.867 E29.7132
G1 X28.265 Y179.584 E29.74101
G1 X27.753 Y179.035 E29.7847
G1 X27.542 Y178.681 E29.80868
G1 X27.375 Y178.277 E29.83412
G1 X27.25 Y177.652 E29.87121
G1 X27.25 Y52.347 E37.16333
G1 X27.366 Y51.755 E37.19844
G1 X27.633 Y51.15 E37.23692
G1 X27.916 Y50.765 E37.26473
G1 X28.465 Y50.253 E37.30842
G1 X28.768 Y50.073 E37.32893
M204 S2500
G1 X29.025 Y50.499 F7200
M204 S2000
G1 F3000
G1 X29.392 Y50.346 E37.35207
G1 X29.873 Y50.25 E37.38061
G1 X200.18 Y50.255 E47.29161
G1 X200.621 Y50.351 E47.31788
G1 X201.075 Y50.552 E47.34677
G1 X201.383 Y50.772 E47.3688
G1 X201.731 Y51.12 E47.39744
G1 X201.981 Y51.486 E47.42323
G1 X202.154 Y51.893 E47.44897
G1 X202.25 Y52.373 E47.47746
G1 X202.25 Y177.627 E54.76661
G1 X202.151 Y178.116 E54.79564
G1 X201.923 Y178.618 E54.82773
G1 X201.724 Y178.887 E54.8472
G1 X201.252 Y179.334 E54.88503
G1 X200.971 Y179.503 E54.90411
G1 X200.608 Y179.654 E54.92699
G1 X200.127 Y179.75 E54.95553
G1 X29.873 Y179.75 E64.86345
G1 X29.384 Y179.651 E64.89248
G1 X28.882 Y179.423 E64.92457
G1 X28.613 Y179.224 E64.94404
G1 X28.166 Y178.752 E64.98187
G1 X27.997 Y178.471 E65.00095
G1 X27.846 Y178.108 E65.02383
G1 X27.75 Y177.627 E65.05237
G1 X27.75 Y52.373 E72.34152
G1 X27.849 Y51.884 E72.37055
G1 X28.077 Y51.382 E72.40264
G1 X28.276 Y51.113 E72.42211
G1 X28.748 Y50.666 E72.45994
G1 X28.973 Y50.53 E72.47524
M204 S2500
G1 X29.234 Y50.953 F7200
M204 S2000
G1 F3000
G1 X29.561 Y50.817 E72.49585
G1 X29.897 Y50.75 E72.51579
G1 X200.152 Y50.755 E82.42377
G1 X200.441 Y50.818 E82.44098
G1 X200.848 Y50.998 E82.46688
G1 X201.043 Y51.139 E82.48088
G1 X201.36 Y51.456 E82.50697
G1 X201.55 Y51.741 E82.5269
G1 X201.683 Y52.061 E82.54707
G1 X201.75 Y52.397 E82.56701
G1 X201.75 Y177.603 E89.85336
G1 X201.682 Y177.941 E89.87342
G1 X201.502 Y178.348 E89.89932
G1 X201.36 Y178.544 E89.91341
G1 X200.966 Y178.924 E89.94527
G1 X200.761 Y179.05 E89.95927
G1 X200.439 Y179.183 E89.97954
G1 X200.103 Y179.25 E89.99948
G1 X29.897 Y179.25 E99.90461
G1 X29.559 Y179.182 E99.92467
G1 X29.152 Y179.002 E99.95057
G1 X28.956 Y178.86 E99.96466
G1 X28.576 Y178.466 E99.99652
G1 X28.45 Y178.261 E100.01052
G1 X28.317 Y177.939 E100.03079
G1 X28.25 Y177.603 E100.05073
G1 X28.25 Y52.397 E107.33708
G1 X28.318 Y52.059 E107.35714
M73 P0 R143
G1 X28.498 Y51.652 E107.38304
G1 X28.64 Y51.456 E107.39713
G1 X29.034 Y51.076 E107.42899
G1 X29.183 Y50.985 E107.43915
M204 S2500
G1 X29.449 Y51.405 F7200
M204 S2000
G1 F3000
G1 X29.729 Y51.288 E107.45681
G1 X29.922 Y51.25 E107.46826
G1 X200.124 Y51.255 E117.37315
G1 X200.266 Y51.287 E117.38162
G1 X200.584 Y51.423 E117.40175
G1 X200.706 Y51.509 E117.41044
G1 X200.989 Y51.792 E117.43373
G1 X201.098 Y51.955 E117.44514
G1 X201.212 Y52.229 E117.46241
G1 X201.25 Y52.422 E117.47386
G1 X201.25 Y177.578 E124.75731
G1 X201.212 Y177.769 E124.76864
G1 X201.077 Y178.084 E124.78858
G1 X200.992 Y178.205 E124.79719
G1 X200.674 Y178.517 E124.82312
G1 X200.548 Y178.597 E124.83181
G1 X200.271 Y178.712 E124.84926
G1 X200.078 Y178.75 E124.86071
G1 X29.922 Y178.75 E134.76293
G1 X29.731 Y178.712 E134.77426
G1 X29.416 Y178.577 E134.7942
G1 X29.295 Y178.492 E134.80281
G1 X28.983 Y178.174 E134.82874
G1 X28.903 Y178.048 E134.83743
G1 X28.788 Y177.771 E134.85488
G1 X28.75 Y177.578 E134.86633
G1 X28.75 Y52.422 E142.14978
G1 X28.788 Y52.231 E142.16111
G1 X28.923 Y51.916 E142.18105
G1 X29.008 Y51.795 E142.18966
G1 X29.326 Y51.483 E142.21559
G1 X29.398 Y51.437 E142.22056
M204 S2500
G1 X29.669 Y51.855 F7200
M204 S2000
G1 F3000
G1 X29.946 Y51.75 E142.2378
G1 X200.054 Y51.75 E152.13722
G1 X200.372 Y51.882 E152.15726
G1 X200.618 Y52.128 E152.17751
G1 X200.75 Y52.446 E152.19755
G1 X200.75 Y177.554 E159.4782
G1 X200.618 Y177.872 E159.49824
G1 X200.372 Y178.118 E159.51849
G1 X200.054 Y178.25 E159.53853
G1 X29.946 Y178.25 E169.43795
G1 X29.628 Y178.118 E169.45799
G1 X29.382 Y177.872 E169.47824
G1 X29.25 Y177.554 E169.49828
G1 X29.25 Y52.446 E176.77893
G1 X29.355 Y52.169 E176.79617
G1 X29.62 Y51.89 E176.81856
M204 S2500
G1 X29.929 Y52.288 F7200
M204 S2000
G1 F3000
G1 X30.021 Y52.25 E176.82435
G1 X199.979 Y52.25 E186.71504
G1 X200.071 Y52.288 E186.72083
G1 X200.212 Y52.429 E186.73243
G1 X200.25 Y52.521 E186.73822
G1 X200.25 Y177.479 E194.01014
G1 X200.212 Y177.571 E194.01593
G1 X200.071 Y177.712 E194.02753
G1 X199.979 Y177.75 E194.03332
G1 X30.021 Y177.75 E203.92401
G1 X29.929 Y177.712 E203.9298
G1 X29.788 Y177.571 E203.9414
G1 X29.75 Y177.479 E203.94719
G1 X29.75 Y52.521 E211.21911
G1 X29.788 Y52.429 E211.2249
G1 X29.886 Y52.331 E211.23297
M204 S2500
G1 E209.83297 F4800
;WIPE_START
G1 F5760
G1 X30.021 Y52.25 E209.70833
G1 X30.621 Y52.25 E209.23297
;WIPE_END
G92 E0
G1 X199.6 Y52.9 F7200
G1 E2 F4800
M204 S2000
;TYPE:External perimeter
G1 F3000
G1 X199.6 Y177.1 E9.22781
G1 X30.4 Y177.1 E19.07439
G1 X30.4 Y52.9 E26.3022
M73 P1 R143
G1 X199.54 Y52.9 E36.14529
M204 S2500
G1 X199.477 Y53.281 F7200
G1 X199.1 Y53.4
M204 S2000
;TYPE:Perimeter
G1 F3000
G1 X199.1 Y176.6 E43.31491
G1 X30.9 Y176.6 E53.1033
G1 X30.9 Y53.4 E60.27292
G1 X199.04 Y53.4 E70.05782
M204 S2500
G1 X198.6 Y53.9 F7200
M204 S2000
M73 P1 R142
G1 F3000
G1 X198.6 Y176.1 E77.16924
G1 X31.4 Y176.1 E86.89943
G1 X31.4 Y53.9 E94.01085
G1 X198.54 Y53.9 E103.73755
M204 S2500
G1 E102.33755 F4800
;WIPE_START
G1 F5760
G1 X198.54 Y54.658 E101.73755
;WIPE_END
G92 E0
G1 X197.389 Y54.1 F7200
G1 E2 F4800
M204 S2000
;TYPE:Solid infill
;WIDTH:0.560436
G1 F3000
G1 X198.175 Y54.886 E2.06474
G1 X198.175 Y55.594 E2.10598
G1 X196.906 Y54.325 E2.21051
G1 X196.198 Y54.325 E2.25175
G1 X198.175 Y56.302 E2.4146
G1 X198.175 Y57.009 E2.45578
G1 X195.491 Y54.325 E2.67687
G1 X194.783 Y54.325 E2.71811
G1 X198.175 Y57.717 E2.99752
G1 X198.175 Y58.424 E3.0387
G1 X194.076 Y54.325 E3.37634
G1 X193.368 Y54.325 E3.41758
G1 X198.175 Y59.132 E3.81354
G1 X198.175 Y59.839 E3.85472
G1 X192.661 Y54.325 E4.30892
G1 X191.953 Y54.325 E4.35016
G1 X198.175 Y60.547 E4.86268
G1 X198.175 Y61.255 E4.90392
G1 X191.245 Y54.325 E5.47476
G1 X190.538 Y54.325 E5.51594
G1 X198.175 Y61.962 E6.14501
G1 X198.175 Y62.67 E6.18625
G1 X189.83 Y54.325 E6.87364
G1 X189.123 Y54.325 E6.91482
G1 X198.175 Y63.377 E7.66045
G1 X198.175 Y64.085 E7.70169
G1 X188.415 Y54.325 E8.50564
G1 X187.707 Y54.325 E8.54688
G1 X198.175 Y64.793 E9.40915
G1 X198.175 Y65.5 E9.45033
G1 X187 Y54.325 E10.37084
G1 X186.292 Y54.325 E10.41208
G1 X198.175 Y66.208 E11.39091
G1 X198.175 Y66.915 E11.43209
G1 X185.585 Y54.325 E12.46915
G1 X184.877 Y54.325 E12.51039
G1 X198.175 Y67.623 E13.60577
G1 X198.175 Y68.331 E13.64701
G1 X184.169 Y54.325 E14.80071
G1 X183.462 Y54.325 E14.84189
G1 X198.175 Y69.038 E16.05383
G1 X198.175 Y69.746 E16.09507
G1 X182.754 Y54.325 E17.36533
G1 X182.047 Y54.325 E17.40651
G1 X198.175 Y70.453 E18.735
G1 X198.175 Y71.161 E18.77624
G1 X181.339 Y54.325 E20.16305
G1 X180.631 Y54.325 E20.20429
G1 X198.175 Y71.869 E21.64942
G1 X198.175 Y72.576 E21.6906
G1 X179.924 Y54.325 E23.19397
G1 X179.216 Y54.325 E23.23521
G1 X198.175 Y73.284 E24.7969
G1 X198.175 Y73.991 E24.83808
G1 X178.509 Y54.325 E26.45801
G1 X177.801 Y54.325 E26.49925
G1 X198.175 Y74.699 E28.1775
G1 X198.175 Y75.407 E28.21874
G1 X177.093 Y54.325 E29.9553
G1 X176.386 Y54.325 E29.99648
G1 X198.175 Y76.114 E31.79128
G1 X198.175 Y76.822 E31.83252
G1 X175.678 Y54.325 E33.68564
G1 X174.971 Y54.325 E33.72682
G1 X198.175 Y77.529 E35.63818
G1 X198.175 Y78.237 E35.67942
G1 X174.263 Y54.325 E37.6491
G1 X173.555 Y54.325 E37.69034
G1 X198.175 Y78.945 E39.71834
G1 X198.175 Y79.652 E39.75952
G1 X172.848 Y54.325 E41.84575
G1 X172.14 Y54.325 E41.88699
G1 X198.175 Y80.36 E44.03154
G1 X198.175 Y81.067 E44.07272
G1 X171.433 Y54.325 E46.27551
G1 X170.725 Y54.325 E46.31675
G1 X198.175 Y81.775 E48.57786
G1 X198.175 Y82.483 E48.6191
G1 X170.017 Y54.325 E50.93853
G1 X169.31 Y54.325 E50.97971
G1 X198.175 Y83.19 E53.35738
G1 X198.175 Y83.898 E53.39862
G1 X168.602 Y54.325 E55.8346
G1 X167.895 Y54.325 E55.87578
G1 X198.175 Y84.605 E58.37
G1 X198.175 Y85.313 E58.41124
G1 X167.187 Y54.325 E60.96378
G1 X166.479 Y54.325 E61.00502
G1 X198.175 Y86.021 E63.61588
G1 X198.175 Y86.728 E63.65706
G1 X165.772 Y54.325 E66.32616
G1 X165.064 Y54.325 E66.3674
G1 X198.175 Y87.436 E69.09482
G1 X198.175 Y88.143 E69.136
G1 X164.357 Y54.325 E71.92165
G1 X163.649 Y54.325 E71.96289
G1 X198.175 Y88.851 E74.80686
G1 X198.175 Y89.559 E74.8481
G1 X162.941 Y54.325 E77.75039
G1 X162.234 Y54.325 E77.79157
G1 X198.175 Y90.266 E80.7521
G1 X198.175 Y90.974 E80.79334
G1 X161.526 Y54.325 E83.81219
G1 X160.819 Y54.325 E83.85337
G1 X198.175 Y91.681 E86.93046
G1 X198.175 Y92.389 E86.9717
G1 X160.111 Y54.325 E90.1071
G1 X159.403 Y54.325 E90.14834
G1 X198.175 Y93.097 E93.34206
G1 X198.175 Y93.804 E93.38324
G1 X158.696 Y54.325 E96.6352
G1 X157.988 Y54.325 E96.67644
G1 X198.175 Y94.512 E99.98672
G1 X198.175 Y95.219 E100.0279
G1 X157.281 Y54.325 E103.39642
G1 X156.573 Y54.325 E103.43766
G1 X198.175 Y95.927 E106.8645
G1 X198.175 Y96.635 E106.90574
G1 X155.865 Y54.325 E110.3909
G1 X155.158 Y54.325 E110.43208
G1 X198.175 Y97.342 E113.97547
G1 X198.175 Y98.05 E114.01671
G1 X154.45 Y54.325 E117.61842
G1 X153.743 Y54.325 E117.6596
G1 X198.175 Y98.757 E121.31955
G1 X198.175 Y99.465 E121.36079
G1 X153.035 Y54.325 E125.07906
G1 X152.327 Y54.325 E125.1203
G1 X198.175 Y100.173 E128.89689
G1 X198.175 Y100.88 E128.93807
G1 X151.62 Y54.325 E132.77289
G1 X150.912 Y54.325 E132.81413
G1 X198.175 Y101.588 E136.70727
G1 X198.175 Y102.295 E136.74845
M73 P1 R141
G1 X150.205 Y54.325 E140.69983
G1 X149.497 Y54.325 E140.74107
G1 X198.175 Y103.003 E144.75077
G1 X198.175 Y103.711 E144.79201
G1 X148.789 Y54.325 E148.86003
G1 X148.082 Y54.325 E148.90121
G1 X198.175 Y104.418 E153.02747
G1 X198.175 Y105.126 E153.06871
G1 X147.374 Y54.325 E157.25329
G1 X146.667 Y54.325 E157.29447
G1 X198.175 Y105.833 E161.53728
G1 X198.175 Y106.541 E161.57852
M73 P2 R141
G1 X145.959 Y54.325 E165.87965
G1 X145.251 Y54.325 E165.92089
G1 X198.175 Y107.249 E170.28034
G1 X198.175 Y107.956 E170.32152
G1 X144.544 Y54.325 E174.73921
G1 X143.836 Y54.325 E174.78045
G1 X198.175 Y108.664 E179.25646
G1 X198.175 Y109.371 E179.29764
G1 X143.129 Y54.325 E183.83188
G1 X142.421 Y54.325 E183.87312
G1 X198.175 Y110.079 E188.46568
G1 X198.175 Y110.787 E188.50692
G1 X141.713 Y54.325 E193.1578
G1 X141.006 Y54.325 E193.19898
G1 X198.175 Y111.494 E197.9081
G1 X198.175 Y112.202 E197.94934
G1 X140.298 Y54.325 E202.71678
G1 X139.591 Y54.325 E202.75796
G1 X198.175 Y112.909 E207.58364
G1 X198.175 Y113.617 E207.62488
G1 X138.883 Y54.325 E212.50888
G1 X138.175 Y54.325 E212.55012
G1 X198.175 Y114.325 E217.49244
G1 X198.175 Y115.032 E217.53362
G1 X137.468 Y54.325 E222.53417
G1 X136.76 Y54.325 E222.57541
G1 X198.175 Y115.74 E227.63428
G1 X198.175 Y116.447 E227.67546
G1 X136.053 Y54.325 E232.79257
G1 X135.345 Y54.325 E232.83381
G1 X198.175 Y117.155 E238.00924
G1 X198.175 Y117.863 E238.05048
G1 X134.637 Y54.325 E243.28423
G1 X133.93 Y54.325 E243.32541
G1 X198.175 Y118.57 E248.61739
G1 X198.175 Y119.278 E248.65863
G1 X133.222 Y54.325 E254.00893
G1 X132.515 Y54.325 E254.05011
G1 X198.175 Y119.985 E259.45865
G1 X198.175 Y120.693 E259.49989
G1 X131.807 Y54.325 E264.96675
G1 X131.099 Y54.325 E265.00799
G1 X198.175 Y121.401 E270.53317
G1 X198.175 Y122.108 E270.57435
G1 X130.392 Y54.325 E276.15777
G1 X129.684 Y54.325 E276.19901
G1 X198.175 Y122.816 E281.84075
G1 X198.175 Y123.523 E281.88193
G1 X128.977 Y54.325 E287.5819
G1 X128.269 Y54.325 E287.62314
G1 X198.175 Y124.231 E293.38143
G1 X198.175 Y124.939 E293.42267
G1 X127.561 Y54.325 E299.23928
G1 X126.854 Y54.325 E299.28046
G1 X198.175 Y125.646 E305.15531
G1 X198.175 Y126.354 E305.19655
G1 X126.146 Y54.325 E311.12972
G1 X125.439 Y54.325 E311.1709
M73 P2 R140
G1 X198.175 Y127.061 E317.1623
G1 X198.175 Y127.769 E317.20354
G1 X124.731 Y54.325 E323.25326
G1 X124.023 Y54.325 E323.2945
G1 X198.175 Y128.477 E329.40254
G1 X198.175 Y129.184 E329.44372
G1 X123.316 Y54.325 E335.61
G1 X122.608 Y54.325 E335.65124
G1 X198.175 Y129.892 E341.87584
G1 X198.175 Y130.599 E341.91702
G1 X121.901 Y54.325 E348.19986
G1 X121.193 Y54.325 E348.2411
G1 X198.175 Y131.307 E354.58226
G1 X198.175 Y132.015 E354.6235
G1 X120.485 Y54.325 E361.02297
G1 X119.778 Y54.325 E361.06415
G1 X198.175 Y132.722 E367.52186
G1 X198.175 Y133.43 E367.5631
G1 X119.07 Y54.325 E374.07913
G1 X118.363 Y54.325 E374.12031
G1 X198.175 Y134.137 E380.69458
G1 X198.175 Y134.845 E380.73582
G1 X117.655 Y54.325 E387.36841
G1 X116.947 Y54.325 E387.40965
G1 X198.175 Y135.553 E394.10056
G1 X198.175 Y136.26 E394.14174
G1 X116.24 Y54.325 E400.89088
G1 X115.532 Y54.325 E400.93212
G1 X198.175 Y136.968 E407.73958
G1 X198.175 Y137.675 E407.78076
G1 X114.825 Y54.325 E414.64646
G1 X114.117 Y54.325 E414.6877
M73 P3 R140
G1 X198.175 Y138.383 E421.61172
G1 X198.175 Y139.091 E421.65296
G1 X113.409 Y54.325 E428.6353
G1 X112.702 Y54.325 E428.67648
G1 X198.175 Y139.798 E435.71706
G1 X198.175 Y140.506 E435.7583
G1 X111.994 Y54.325 E442.85719
G1 X111.287 Y54.325 E442.89837
G1 X198.175 Y141.213 E450.0555
G1 X198.175 Y141.921 E450.09674
G1 X110.579 Y54.325 E457.31219
G1 X109.871 Y54.325 E457.35343
G1 X198.175 Y142.629 E464.6272
G1 X198.175 Y143.336 E464.66838
G1 X109.164 Y54.325 E472.00039
G1 X108.456 Y54.325 E472.04163
G1 X198.175 Y144.044 E479.43196
G1 X198.175 Y144.751 E479.47314
G1 X107.749 Y54.325 E486.9217
G1 X107.041 Y54.325 E486.96294
M73 P3 R139
G1 X198.175 Y145.459 E494.46982
G1 X198.175 Y146.167 E494.51106
G1 X106.333 Y54.325 E502.07626
G1 X105.626 Y54.325 E502.11744
G1 X198.175 Y146.874 E509.74088
G1 X198.175 Y147.582 E509.78212
G1 X104.918 Y54.325 E517.46388
G1 X104.211 Y54.325 E517.50506
G1 X198.175 Y148.289 E525.24506
G1 X198.175 Y148.997 E525.2863
G1 X103.503 Y54.325 E533.08461
G1 X102.795 Y54.325 E533.12585
G1 X198.175 Y149.705 E540.98248
G1 X198.175 Y150.412 E541.02366
