; generated by AnycubicSlicer 1.1.1 on 2024-12-24 at 16:12:50 UTC

; 

; external perimeters extrusion width = 0.45mm
; perimeters extrusion width = 0.40mm
; infill extrusion width = 0.45mm
; solid infill extrusion width = 0.50mm
; top infill extrusion width = 0.45mm
; first layer extrusion width = 0.56mm

M73 P0 R161
M201 X2500 Y2500 Z800 E2500 ; sets maximum accelerations, mm/sec^2
M203 X300 Y250 Z8 E80 ; sets maximum feedrates, mm / sec
M204 P2500 R2500 T2500 ; sets acceleration (P, T) and retract acceleration (R), mm/sec^2
M205 X15.00 Y10.00 Z2.00 E10.00 ; sets the jerk limits, mm/sec
M205 S0 T0 ; sets the minimum extruding and travel feed rate, mm/sec
M107
;TYPE:Custom
G90 ; use absolute coordinates
M83 ; extruder relative mode
M104 S195 ; set extruder temp
M140 S40 ; set bed temp
M190 S40 ; wait for bed temp
M109 S195 ; wait for extruder temp
G28                                        ; move X/Y/Z to min endstops
G1 Z0.28                                   ; lift nozzle a bit 
G92 E0 
G1 Y3 F1800                                    ; zero the extruded length 
G1 X60  E25 F500                       ; Extrude 25mm of filament in a 5cm line. 
G92 E0                                     ; zero the extruded length again 
G1 E-2 F500                                ; Retract a little 
G1 X70 F4000                              ; Quickly wipe away from the filament line
M117
G21 ; set units to millimeters
G90 ; use absolute coordinates
M82 ; use absolute distances for extrusion
G92 E0
; Filament gcode
M107
;LAYER_CHANGE
;Z:0.28
;HEIGHT:0.28
; BEFORE_LAYER_CHANGE 0 @ 0.28mm
G1 E-2 F4800
G92 E0
G1 Z.28 F7200
; AFTER_LAYER_CHANGE 0 @ 0.28mm
G1 X50.765 Y48.416
G1 E2 F4800
M204 S2000
;TYPE:Skirt/Brim
;WIDTH:0.56
G1 F3000
G1 X51.15 Y48.133 E2.02781
G1 X51.755 Y47.866 E2.06629
G1 X52.347 Y47.75 E2.1014
G1 X69.752 Y47.75 E3.11428
G1 X69.768 Y39.676 E3.58415
G1 X69.868 Y39.247 E3.60978
G1 X70.121 Y38.673 E3.64628
G1 X70.399 Y38.283 E3.67415
G1 X70.812 Y37.875 E3.70793
G1 X71.254 Y37.575 E3.73902
G1 X71.755 Y37.365 E3.77063
G1 X72.244 Y37.26 E3.79974
G1 X157.765 Y37.261 E8.77663
G1 X158.206 Y37.353 E8.80285
G1 X158.686 Y37.545 E8.83294
G1 X159.217 Y37.899 E8.87008
G1 X159.596 Y38.278 E8.90127
G1 X159.842 Y38.607 E8.92518
G1 X160.129 Y39.237 E8.96547
G1 X160.232 Y39.675 E8.99165
G1 X160.248 Y47.75 E9.46158
G1 X177.752 Y47.761 E10.48022
G1 X178.233 Y47.861 E10.50881
G1 X178.688 Y48.045 E10.53737
G1 X179.217 Y48.399 E10.57441
G1 X179.595 Y48.777 E10.60552
G1 X179.868 Y49.151 E10.63247
G1 X180.115 Y49.697 E10.66734
G1 X180.224 Y50.117 E10.69259
G1 X180.25 Y52.647 E10.83983
G1 X180.156 Y53.176 E10.8711
G1 X179.937 Y53.721 E10.90528
G1 X179.638 Y54.173 E10.93682
G1 X179.136 Y54.668 E10.97785
G1 X178.723 Y54.936 E11.0065
G1 X178.205 Y55.147 E11.03905
G1 X177.765 Y55.239 E11.06521
G1 X160.25 Y55.249 E12.08449
G1 X160.25 Y74.75 E13.21935
G1 X177.751 Y74.761 E14.23782
G1 X178.277 Y74.875 E14.26914
G1 X178.774 Y75.092 E14.3007
G1 X179.216 Y75.398 E14.33198
G1 X179.598 Y75.78 E14.36342
G1 X179.901 Y76.211 E14.39408
G1 X180.121 Y76.713 E14.42598
G1 X180.25 Y77.348 E14.46369
G1 X180.25 Y79.653 E14.59783
G1 X180.154 Y80.182 E14.62912
G1 X179.958 Y80.681 E14.66032
G1 X179.638 Y81.173 E14.69448
G1 X179.136 Y81.668 E14.73551
G1 X178.723 Y81.936 E14.76416
G1 X178.249 Y82.133 E14.79403
G1 X177.824 Y82.232 E14.81943
G1 X160.25 Y82.249 E15.84215
G1 X160.25 Y147.75 E19.65398
G1 X177.751 Y147.761 E20.67245
M73 P0 R160
G1 X178.277 Y147.875 E20.70377
G1 X178.774 Y148.092 E20.73533
G1 X179.216 Y148.398 E20.76661
G1 X179.598 Y148.78 E20.79805
G1 X179.901 Y149.211 E20.82871
G1 X180.121 Y149.713 E20.86061
G1 X180.25 Y150.348 E20.89832
G1 X180.25 Y152.653 E21.03246
G1 X180.154 Y153.182 E21.06375
G1 X179.958 Y153.681 E21.09495
G1 X179.638 Y154.173 E21.12911
G1 X179.136 Y154.668 E21.17014
G1 X178.723 Y154.936 E21.19879
G1 X178.249 Y155.133 E21.22866
G1 X177.824 Y155.232 E21.25406
G1 X160.25 Y155.249 E22.27678
G1 X160.25 Y174.75 E23.41164
G1 X177.644 Y174.75 E24.42388
G1 X178.155 Y174.838 E24.45406
G1 X178.768 Y175.088 E24.49259
G1 X179.228 Y175.409 E24.52523
G1 X179.748 Y175.966 E24.56957
G1 X179.966 Y176.339 E24.59471
G1 X180.178 Y176.899 E24.62956
G1 X180.249 Y177.357 E24.65653
G1 X180.239 Y179.751 E24.79585
G1 X180.126 Y180.276 E24.8271
G1 X179.958 Y180.681 E24.85262
G1 X179.747 Y181.035 E24.8766
G1 X179.235 Y181.584 E24.92029
G1 X178.85 Y181.867 E24.9481
G1 X178.245 Y182.134 E24.98658
G1 X177.653 Y182.25 E25.02169
G1 X160.248 Y182.25 E26.03457
G1 X160.232 Y190.325 E26.5045
G1 X160.129 Y190.763 E26.53068
G1 X159.842 Y191.393 E26.57097
G1 X159.597 Y191.721 E26.5948
G1 X159.182 Y192.13 E26.62871
G1 X158.734 Y192.431 E26.66012
G1 X158.279 Y192.624 E26.68888
G1 X157.652 Y192.75 E26.7261
G1 X72.245 Y192.74 E31.69635
G1 X71.764 Y192.638 E31.72496
G1 X71.315 Y192.456 E31.75315
G1 X70.783 Y192.101 E31.79037
G1 X70.404 Y191.722 E31.82156
G1 X70.158 Y191.393 E31.84547
G1 X69.871 Y190.763 E31.88576
G1 X69.768 Y190.325 E31.91194
G1 X69.752 Y182.25 E32.38187
G1 X52.348 Y182.25 E33.39469
G1 X51.723 Y182.125 E33.43178
G1 X51.319 Y181.958 E33.45722
G1 X50.965 Y181.747 E33.4812
G1 X50.314 Y181.114 E33.53404
G1 X50.073 Y180.74 E33.55993
G1 X49.835 Y180.148 E33.59706
G1 X49.755 Y179.703 E33.62337
G1 X49.768 Y177.175 E33.77049
G1 X49.867 Y176.75 E33.79589
G1 X50.045 Y176.312 E33.8234
G1 X50.41 Y175.771 E33.86138
G1 X50.966 Y175.252 E33.90564
G1 X51.33 Y175.037 E33.93024
G1 X51.787 Y174.854 E33.95889
G1 X52.354 Y174.75 E33.99244
G1 X69.75 Y174.75 E35.0048
G1 X69.75 Y155.25 E36.1396
G1 X52.249 Y155.239 E37.15807
G1 X51.723 Y155.125 E37.18939
G1 X51.226 Y154.908 E37.22095
G1 X50.784 Y154.602 E37.25223
G1 X50.402 Y154.22 E37.28367
G1 X50.099 Y153.789 E37.31433
G1 X49.879 Y153.287 E37.34623
G1 X49.75 Y152.652 E37.38394
G1 X49.75 Y150.347 E37.51808
G1 X49.846 Y149.818 E37.54937
G1 X50.042 Y149.319 E37.58057
G1 X50.362 Y148.827 E37.61473
G1 X50.864 Y148.332 E37.65576
G1 X51.277 Y148.064 E37.68441
G1 X51.751 Y147.867 E37.71428
G1 X52.176 Y147.768 E37.73968
G1 X69.75 Y147.751 E38.7624
G1 X69.75 Y82.25 E42.57423
G1 X52.249 Y82.239 E43.5927
G1 X51.723 Y82.125 E43.62402
G1 X51.226 Y81.908 E43.65558
G1 X50.784 Y81.602 E43.68686
G1 X50.402 Y81.22 E43.7183
G1 X50.099 Y80.789 E43.74896
G1 X49.879 Y80.287 E43.78086
G1 X49.75 Y79.652 E43.81857
G1 X49.75 Y77.347 E43.95271
G1 X49.846 Y76.818 E43.984
G1 X50.042 Y76.319 E44.0152
G1 X50.362 Y75.827 E44.04936
G1 X50.864 Y75.332 E44.09039
G1 X51.277 Y75.064 E44.11904
G1 X51.751 Y74.867 E44.14891
G1 X52.176 Y74.768 E44.17431
G1 X69.75 Y74.751 E45.19703
G1 X69.75 Y55.25 E46.33189
G1 X52.356 Y55.25 E47.34413
G1 X51.845 Y55.162 E47.37431
G1 X51.232 Y54.912 E47.41284
G1 X50.772 Y54.591 E47.44548
G1 X50.252 Y54.034 E47.48982
G1 X50.034 Y53.661 E47.51496
G1 X49.822 Y53.101 E47.54981
G1 X49.751 Y52.643 E47.57678
G1 X49.761 Y50.249 E47.7161
G1 X49.874 Y49.724 E47.74735
G1 X50.042 Y49.319 E47.77287
G1 X50.253 Y48.965 E47.79685
G1 X50.724 Y48.46 E47.83704
M204 S2500
G1 X51.087 Y48.803 F7200
M204 S2000
G1 F3000
G1 X51.382 Y48.577 E47.85867
G1 X51.884 Y48.349 E47.89076
G1 X52.373 Y48.25 E47.91979
G1 X70.251 Y48.25 E48.9602
G1 X70.268 Y39.709 E49.45724
G1 X70.347 Y39.389 E49.47642
G1 X70.544 Y38.939 E49.50501
G1 X70.769 Y38.62 E49.52773
G1 X71.117 Y38.272 E49.55637
G1 X71.473 Y38.026 E49.58155
G1 X71.925 Y37.836 E49.61008
G1 X72.319 Y37.755 E49.63349
G1 X157.736 Y37.761 E54.60433
G1 X158.076 Y37.836 E54.62459
G1 X158.474 Y37.998 E54.6496
G1 X158.881 Y38.269 E54.67806
G1 X159.229 Y38.618 E54.70674
G1 X159.423 Y38.882 E54.72581
G1 X159.65 Y39.382 E54.75777
G1 X159.732 Y39.709 E54.77739
G1 X159.749 Y48.25 E55.27443
G1 X177.675 Y48.255 E56.31763
G1 X178.107 Y48.345 E56.34331
G1 X178.473 Y48.497 E56.36637
G1 X178.881 Y48.769 E56.39491
G1 X179.229 Y49.118 E56.42359
G1 X179.423 Y49.382 E56.44266
G1 X179.65 Y49.882 E56.47462
G1 X179.732 Y50.209 E56.49424
G1 X179.75 Y52.626 E56.6349
G1 X179.67 Y53.057 E56.66041
G1 X179.484 Y53.507 E56.68875
G1 X179.268 Y53.836 E56.71165
G1 X178.804 Y54.293 E56.74955
G1 X178.475 Y54.502 E56.77223
G1 X178.076 Y54.664 E56.79729
G1 X177.737 Y54.739 E56.8175
G1 X159.75 Y54.749 E57.86425
G1 X159.75 Y75.25 E59.0573
G1 X177.675 Y75.255 E60.10044
G1 X178.106 Y75.345 E60.12606
G1 X178.514 Y75.519 E60.15187
G1 X178.88 Y75.769 E60.17766
G1 X179.228 Y76.117 E60.2063
G1 X179.475 Y76.473 E60.23152
G1 X179.651 Y76.885 E60.25759
G1 X179.75 Y77.373 E60.28657
G1 X179.75 Y79.629 E60.41786
G1 X179.668 Y80.063 E60.44356
G1 X179.503 Y80.471 E60.46917
G1 X179.267 Y80.836 E60.49446
G1 X178.804 Y81.293 E60.53232
G1 X178.474 Y81.502 E60.55505
G1 X178.11 Y81.653 E60.57798
G1 X177.791 Y81.732 E60.5971
G1 X159.75 Y81.749 E61.647
G1 X159.75 Y148.25 E65.51702
G1 X177.675 Y148.255 E66.56016
G1 X178.106 Y148.345 E66.58578
G1 X178.514 Y148.519 E66.61159
G1 X178.88 Y148.769 E66.63738
G1 X179.228 Y149.117 E66.66602
G1 X179.475 Y149.473 E66.69124
G1 X179.651 Y149.885 E66.71731
G1 X179.75 Y150.373 E66.74629
G1 X179.75 Y152.629 E66.87758
G1 X179.668 Y153.063 E66.90328
G1 X179.503 Y153.471 E66.92889
G1 X179.267 Y153.836 E66.95418
G1 X178.804 Y154.293 E66.99204
G1 X178.474 Y154.502 E67.01477
G1 X178.11 Y154.653 E67.0377
G1 X177.791 Y154.732 E67.05682
G1 X159.75 Y154.749 E68.10672
G1 X159.75 Y175.25 E69.29977
G1 X177.624 Y175.25 E70.33995
G1 X177.996 Y175.312 E70.3619
G1 X178.51 Y175.517 E70.3941
G1 X178.885 Y175.774 E70.42056
G1 X179.334 Y176.248 E70.45856
G1 X179.507 Y176.537 E70.47816
G1 X179.7 Y177.051 E70.51011
G1 X179.75 Y177.374 E70.52913
G1 X179.745 Y179.675 E70.66304
G1 X179.655 Y180.107 E70.68872
G1 X179.503 Y180.471 E70.71168
G1 X179.334 Y180.752 E70.73076
G1 X178.887 Y181.224 E70.76859
G1 X178.618 Y181.423 E70.78806
G1 X178.116 Y181.651 E70.82015
G1 X177.627 Y181.75 E70.84918
G1 X159.749 Y181.75 E71.88959
G1 X159.732 Y190.291 E72.38663
G1 X159.65 Y190.618 E72.40625
G1 X159.423 Y191.118 E72.43821
G1 X159.229 Y191.382 E72.45728
G1 X158.88 Y191.731 E72.486
G1 X158.514 Y191.981 E72.51179
G1 X158.107 Y192.154 E72.53753
G1 X157.627 Y192.25 E72.56602
G1 X72.319 Y192.245 E77.53051
G1 X71.929 Y192.165 E77.55368
G1 X71.526 Y192.002 E77.57898
G1 X71.119 Y191.731 E77.60744
G1 X70.771 Y191.382 E77.63612
G1 X70.577 Y191.118 E77.65519
G1 X70.35 Y190.618 E77.68715
G1 X70.268 Y190.291 E77.70677
G1 X70.251 Y181.75 E78.20381
G1 X52.373 Y181.75 E79.24422
G1 X51.892 Y181.654 E79.27276
G1 X51.529 Y181.503 E79.29564
G1 X51.249 Y181.334 E79.31467
G1 X50.715 Y180.815 E79.35801
G1 X50.525 Y180.527 E79.37809
G1 X50.321 Y180.028 E79.40946
G1 X50.255 Y179.681 E79.43002
G1 X50.268 Y177.209 E79.57388
G1 X50.347 Y176.89 E79.593
G1 X50.497 Y176.527 E79.61586
G1 X50.775 Y176.114 E79.64483
G1 X51.248 Y175.666 E79.68274
G1 X51.535 Y175.493 E79.70224
G1 X51.949 Y175.328 E79.72818
G1 X52.376 Y175.25 E79.75344
G1 X70.25 Y175.25 E80.79362
G1 X70.25 Y154.75 E81.98662
G1 X52.325 Y154.745 E83.02976
G1 X51.894 Y154.655 E83.05538
G1 X51.486 Y154.481 E83.08119
G1 X51.12 Y154.231 E83.10698
G1 X50.772 Y153.883 E83.13562
G1 X50.525 Y153.527 E83.16084
G1 X50.349 Y153.115 E83.18691
G1 X50.25 Y152.627 E83.21589
G1 X50.25 Y150.371 E83.34718
G1 X50.332 Y149.937 E83.37288
G1 X50.497 Y149.529 E83.39849
G1 X50.733 Y149.164 E83.42378
G1 X51.196 Y148.707 E83.46164
G1 X51.526 Y148.498 E83.48437
G1 X51.89 Y148.347 E83.5073
G1 X52.209 Y148.268 E83.52642
G1 X70.25 Y148.251 E84.57632
G1 X70.25 Y81.75 E88.44634
G1 X52.325 Y81.745 E89.48948
G1 X51.894 Y81.655 E89.5151
G1 X51.486 Y81.481 E89.54091
G1 X51.12 Y81.231 E89.5667
G1 X50.772 Y80.883 E89.59534
G1 X50.525 Y80.527 E89.62056
G1 X50.349 Y80.115 E89.64663
G1 X50.25 Y79.627 E89.67561
G1 X50.25 Y77.371 E89.8069
G1 X50.332 Y76.937 E89.8326
G1 X50.497 Y76.529 E89.85821
G1 X50.733 Y76.164 E89.8835
G1 X51.196 Y75.707 E89.92136
G1 X51.526 Y75.498 E89.94409
G1 X51.89 Y75.347 E89.96702
G1 X52.209 Y75.268 E89.98614
G1 X70.25 Y75.251 E91.03604
G1 X70.25 Y54.75 E92.22909
G1 X52.376 Y54.75 E93.26927
G1 X52.004 Y54.688 E93.29122
G1 X51.49 Y54.483 E93.32342
G1 X51.115 Y54.226 E93.34988
G1 X50.666 Y53.752 E93.38788
G1 X50.493 Y53.463 E93.40748
G1 X50.3 Y52.949 E93.43943
G1 X50.25 Y52.626 E93.45845
G1 X50.255 Y50.325 E93.59236
G1 X50.345 Y49.893 E93.61804
G1 X50.497 Y49.529 E93.641
G1 X50.666 Y49.248 E93.66008
G1 X51.046 Y48.847 E93.69223
M204 S2500
G1 X51.405 Y49.193 F7200
M204 S2000
G1 F3000
G1 X51.652 Y48.998 E93.71054
G1 X52.059 Y48.818 E93.73644
G1 X52.397 Y48.75 E93.7565
G1 X70.75 Y48.75 E94.82455
G1 X70.761 Y39.795 E95.34569
G1 X70.816 Y39.564 E95.35951
G1 X70.971 Y39.2 E95.38253
G1 X71.139 Y38.957 E95.39972
G1 X71.455 Y38.641 E95.42573
G1 X71.694 Y38.474 E95.4427
G1 X72.057 Y38.319 E95.46567
G1 X72.348 Y38.255 E95.48301
G1 X157.705 Y38.261 E100.45035
G1 X157.938 Y38.317 E100.4643
G1 X158.259 Y38.45 E100.48452
G1 X158.544 Y38.64 E100.50445
G1 X158.861 Y38.957 E100.53054
G1 X159.002 Y39.152 E100.54454
G1 X159.183 Y39.561 E100.57057
G1 X159.239 Y39.795 E100.58457
G1 X159.25 Y48.75 E101.10571
G1 X177.603 Y48.75 E102.17376
G1 X177.939 Y48.817 E102.1937
G1 X178.259 Y48.95 E102.21387
G1 X178.544 Y49.14 E102.2338
G1 X178.861 Y49.457 E102.25989
G1 X179.002 Y49.652 E102.27389
G1 X179.183 Y50.061 E102.29992
G1 X179.239 Y50.295 E102.31392
G1 X179.25 Y52.604 E102.44829
G1 X179.196 Y52.895 E102.46551
G1 X179.05 Y53.26 E102.48839
G1 X178.894 Y53.503 E102.50519
G1 X178.509 Y53.889 E102.53692
G1 X178.261 Y54.05 E102.55413
G1 X177.938 Y54.183 E102.57446
G1 X177.705 Y54.239 E102.58841
G1 X159.25 Y54.25 E103.6624
G1 X159.25 Y75.75 E104.91359
G1 X177.603 Y75.75 E105.98164
G1 X177.939 Y75.817 E106.00158
G1 X178.259 Y75.95 E106.02175
G1 X178.544 Y76.14 E106.04168
G1 X178.859 Y76.455 E106.0676
G1 X179.026 Y76.694 E106.08457
G1 X179.182 Y77.058 E106.10762
G1 X179.25 Y77.397 E106.12774
G1 X179.25 Y79.603 E106.25612
G1 X179.183 Y79.939 E106.27606
G1 X179.05 Y80.259 E106.29623
G1 X178.894 Y80.503 E106.31308
G1 X178.509 Y80.889 E106.34481
G1 X178.261 Y81.05 E106.36202
G1 X177.938 Y81.183 E106.38235
G1 X177.705 Y81.239 E106.3963
G1 X159.25 Y81.25 E107.47029
G1 X159.25 Y148.75 E111.39845
G1 X177.603 Y148.75 E112.4665
G1 X177.939 Y148.817 E112.48644
G1 X178.259 Y148.95 E112.50661
G1 X178.544 Y149.14 E112.52654
G1 X178.859 Y149.455 E112.55246
G1 X179.026 Y149.694 E112.56943
G1 X179.182 Y150.058 E112.59248
G1 X179.25 Y150.397 E112.6126
G1 X179.25 Y152.603 E112.74098
G1 X179.183 Y152.939 E112.76092
G1 X179.05 Y153.259 E112.78109
G1 X178.894 Y153.503 E112.79794
G1 X178.509 Y153.889 E112.82967
G1 X178.261 Y154.05 E112.84688
G1 X177.938 Y154.183 E112.86721
G1 X177.705 Y154.239 E112.88116
G1 X159.25 Y154.25 E113.95515
G1 X159.25 Y175.75 E115.20634
G1 X177.605 Y175.75 E116.27451
G1 X177.842 Y175.788 E116.28848
G1 X178.258 Y175.949 E116.31444
G1 X178.545 Y176.141 E116.33453
G1 X178.923 Y176.534 E116.36626
G1 X179.05 Y176.741 E116.38039
G1 X179.212 Y177.158 E116.40642
G1 X179.25 Y177.395 E116.42039
G1 X179.25 Y179.603 E116.54888
G1 X179.183 Y179.939 E116.56882
G1 X179.05 Y180.261 E116.58909
G1 X178.924 Y180.466 E116.60309
G1 X178.544 Y180.86 E116.63495
G1 X178.348 Y181.002 E116.64904
G1 X177.941 Y181.182 E116.67494
G1 X177.603 Y181.25 E116.695
G1 X159.25 Y181.25 E117.76305
G1 X159.239 Y190.205 E118.28419
G1 X159.183 Y190.439 E118.29819
G1 X159.002 Y190.848 E118.32422
G1 X158.861 Y191.043 E118.33822
G1 X158.544 Y191.36 E118.36431
G1 X158.259 Y191.55 E118.38424
G1 X157.939 Y191.683 E118.40441
G1 X157.603 Y191.75 E118.42435
G1 X72.347 Y191.745 E123.38582
G1 X72.06 Y191.682 E123.40292
G1 X71.741 Y191.55 E123.42301
G1 X71.456 Y191.36 E123.44294
G1 X71.139 Y191.043 E123.46903
G1 X70.998 Y190.848 E123.48303
G1 X70.817 Y190.439 E123.50906
G1 X70.761 Y190.205 E123.52306
G1 X70.75 Y181.25 E124.0442
G1 X52.397 Y181.25 E125.11225
G1 X52.061 Y181.183 E125.13219
G1 X51.739 Y181.05 E125.15246
G1 X51.535 Y180.924 E125.16641
G1 X51.114 Y180.513 E125.20065
G1 X50.976 Y180.308 E125.21503
G1 X50.805 Y179.902 E125.24067
G1 X50.755 Y179.655 E125.25534
G1 X50.761 Y177.295 E125.39268
G1 X50.817 Y177.062 E125.40663
G1 X50.95 Y176.741 E125.42685
G1 X51.141 Y176.455 E125.44686
G1 X51.534 Y176.077 E125.47859
G1 X51.742 Y175.949 E125.4928
